img/flame.svg

<?xml version="1.0" encoding="UTF-8"?>
<svg width="22px" height="22px" viewBox="0 0 22 22" version="1.1" xmlns="http://www.w3.org/2000/svg" xmlns:xlink="http://www.w3.org/1999/xlink">
    <title>火</title>
    <g id="首页" stroke="none" stroke-width="1" fill="none" fill-rule="evenodd">
        <g id="画板备份-9" transform="translate(-576.000000, -749.000000)" fill-rule="nonzero">
            <g id="火" transform="translate(576.000000, 749.000000)">
                <rect id="矩形" fill="#000000" opacity="0" x="0" y="0" width="22" height="22"></rect>
                <path d="M8.53724517,20.0869565 C8.53724517,20.0869565 0.0534125024,18.2208851 3.8451797,8.95885093 C3.8451797,8.95885093 4.70604885,9.98796584 4.58776149,10.4833075 C4.58776149,10.4833075 5.26243757,8.14538043 6.71912456,6.7490295 C7.96990392,5.54910714 9.24039784,2.17565994 8.06847672,0.956521739 C8.06847672,0.956521739 13.8733196,2.17565994 14.5195191,8.27348602 C14.5195191,8.27348602 15.2621009,6.33055124 16.7866936,6.13839286 C16.7866936,6.13839286 16.3179252,7.20593944 16.7866936,8.80725932 C16.7866936,8.80725932 21.5948559,17.0380435 13.3081689,19.8200699 C13.3081689,19.8200699 15.7922035,16.9996118 10.5240348,12.1593556 C10.5240348,12.1593556 9.28201746,14.7513587 8.53943567,15.6651786 C8.53724517,15.6673137 6.46502578,17.990295 8.53724517,20.0869565 Z" id="路径" fill="#FF1800"></path>
            </g>
        </g>
    </g>
</svg>

<svg width="22" height="22" xmlns="http://www.w3.org/2000/svg"><path d="M8.537 20.087S.053 18.221 3.845 8.959c0 0 .861 1.029.743 1.524 0 0 .674-2.338 2.131-3.734C7.97 5.549 9.24 2.176 8.07.957c0 0 5.804 1.219 6.45 7.316 0 0 .743-1.942 2.268-2.135 0 0-.47 1.068 0 2.67 0 0 4.808 8.23-3.479 11.012 0 0 2.484-2.82-2.784-7.66 0 0-1.242 2.591-1.985 3.505-.002.002-2.074 2.325-.002 4.422z" fill="#FF1800"/></svg>
